Papirus/64x64/apps/half-life2-lost-coast.svg

<svg width="64" height="64" version="1.1" xmlns="http://www.w3.org/2000/svg">
 <circle cx="32" cy="33" r="28" style="opacity:.2"/>
 <circle cx="32" cy="32" r="28" style="fill:#172f52"/>
 <path d="M 32,4 A 28,28 0 0 0 4,32 28,28 0 0 0 4.0352,32.5 28,28 0 0 1 32,5 28,28 0 0 1 59.982,32.252 28,28 0 0 0 60,32 28,28 0 0 0 32,4 Z" style="fill:#ffffff;opacity:.1"/>
 <path d="m32 11a22 22 0 0 0-22 22 22 22 0 0 0 22 22 22 22 0 0 0 22-22 22 22 0 0 0-22-22zm-8 8h6.641l8.939 21.811 4.67-1.881 1.49 3.72-8.349 3.35h-0.01l-5.83-14.23-10.211 15.23-3.34-2.01 11.711-17.701-1.762-4.289h-3.949z" style="opacity:.2"/>
 <path d="m32 10a22 22 0 0 0-22 22 22 22 0 0 0 22 22 22 22 0 0 0 22-22 22 22 0 0 0-22-22zm-8 8h6.641l8.939 21.811 4.67-1.881 1.49 3.72-8.349 3.35h-0.01l-5.83-14.23-10.211 15.23-3.34-2.01 11.711-17.701-1.762-4.289h-3.949v-4z" style="fill:#6fa2cd"/>
 <circle cx="47" cy="48" r="15" style="opacity:.2"/>
 <circle cx="47" cy="47" r="15" style="fill:#4253cd"/>
 <path d="m47 40s-0.944996-0.01925-1.929688 0.498047c-0.948298 0.49778-1.980944 1.743627-2.05664 3.501953h2.677734c0.128926-1.185116 1.308594-1.199219 1.308594-1.199219s1.333984-0.0016 1.333984 1.398438c0 0.738913-0.187436 1.152522-0.542968 1.61914-0.355534 0.466757-0.923177 0.935943-1.589844 1.460938-0.666665 0.524997-1.431707 1.105299-2.076172 1.951172-0.644467 0.845735-1.125 2.00807-1.125 3.36914v1.400391h8v-3h-4.865234c0.04173-0.0616 0.02622 0.04347 0.07422-0.01953 0.355533-0.466757 0.923178-0.933988 1.589844-1.458985 0.666663-0.524998 1.431704-1.107252 2.07617-1.953126 0.644465-0.845735 1.125-2.00807 1.125-3.36914 0-1.866608-1.085634-3.184295-2.070312-3.701172-0.984704-0.517016-1.929688-0.498047-1.929688-0.498047z" style="fill-rule:evenodd;fill:#ffffff"/>
</svg>

<svg xmlns="http://www.w3.org/2000/svg" width="64" height="64" version="1.1">
 <circle style="opacity:0.2" cx="32" cy="33" r="28"/>
 <circle style="fill:#172f52" cx="32" cy="32" r="28"/>
 <path style="fill:#ffffff;opacity:0.1" d="M 32,4 A 28,28 0 0 0 4,32 28,28 0 0 0 4.0352,32.5 28,28 0 0 1 32,5 28,28 0 0 1 59.982,32.252 28,28 0 0 0 60,32 28,28 0 0 0 32,4 Z"/>
 <path style="opacity:0.2" d="m32 11a22 22 0 0 0-22 22 22 22 0 0 0 22 22 22 22 0 0 0 22-22 22 22 0 0 0-22-22zm-8 8h6.641l8.939 21.811 4.67-1.881 1.49 3.72-8.349 3.35h-0.01l-5.83-14.23-10.211 15.23-3.34-2.01 11.711-17.701-1.762-4.289h-3.949z"/>
 <path style="fill:#6fa2cd" d="m32 10a22 22 0 0 0-22 22 22 22 0 0 0 22 22 22 22 0 0 0 22-22 22 22 0 0 0-22-22zm-8 8h6.641l8.939 21.811 4.67-1.881 1.49 3.72-8.349 3.35h-0.01l-5.83-14.23-10.211 15.23-3.34-2.01 11.711-17.701-1.762-4.289h-3.949v-4z"/>
 <circle style="opacity:0.2" cx="47" cy="48" r="15"/>
 <circle style="fill:#4253cd" cx="47" cy="47" r="15"/>
 <path style="fill:#ffffff" d="M 46.13,51 C 46.49,50.53 47.12,50.05 47.79,49.52 48.46,49 49.22,48.41 49.87,47.57 50.51,46.72 50.99,45.56 50.99,44.2 50.99,42.33 49.9,41.02 48.92,40.5 47.94,39.98 46.99,40 46.99,40 H 47 C 47,40 46.06,39.98 45.07,40.5 44.12,41 43.09,42.24 43.01,44 H 45.69 C 45.82,42.81 47,42.8 47,42.8 47,42.8 48.33,42.8 48.33,44.2 48.33,44.94 48.14,45.35 47.79,45.82 47.43,46.29 46.87,46.76 46.2,47.28 45.53,47.8 44.77,48.39 44.12,49.23 43.48,50.08 43,51.24 43,52.6 V 54 H 51 V 51"/>
</svg>
